X:1
T:Quando signora
T:Quando signora
T:Vincentio Podio
T:Source : Primo libro delle villanelle a 3 voci---Venetia--Figlio d'A.Gardano---1574. Editor : André Vierendeels (10/03/16).
T:Notes : Original clefs : C1, C2, C4 Editorial accidentals above the staff "Alla napolitano" Music by composers fromBari, collected by Joanne de Antiquis
T:©
T:©
C:Vincentio Podio
Z:©
%%score [ 1 2 3 ]
L:1/8
Q:1/4=120
M:4/4
K:F
V:1 treble nm="Soprano" snm="S"
V:2 treble nm="Alto" snm="A"
V:3 treble-8 nm="Tenor" snm="T"
V:1
 A4 A2 B2 | G4 F2 G2- | G2 F2 E2 DC | D4 C4 :: z2 G2 G2 G2 | G2 G2 G4- | G2 E2 F2 G2 | A4 A4 | %8
w: 1)Quan- do si-|gno- ra'il tuo|_ bel vi- so _|veg- gio,|1)tan- ta dol-|cez- za sen-|* to nel mio|co- re,|
w: 2)E se gli'oc-|chi toi ne-|* ri'an- cor va- *|gheg- gio,|2)ch'a- van- za-|no le stel-|* le di splen-|do- re,|
w: 3)Se de le|trec- cie bion-|* de poi m'a- *|veg- gio,|3)che m'han li-|gat' in mil-|* le no- di'l|co- re,|
w: 4)Quan- do poi|la tua boc-|* ca s'a- pr'e _|chiu- de,|4)sen- to tal|me- lo- dia|_ con tal di-|let- to,|
 z2 c2 B2 A2 | G2 F2 E4 | D2 E2 E2 G2 | F2 E2 D4 | C4 z2 E2 | E2 E2 F2 E2 | D4 C4 :| %15
w: 1)e gri- do'a|tut- te l'ho-|re, sia be- ne-|det- to'a- mo-|1)re, sia|be- ne- det- to'a-|mo- re.|
w: 2)e gri- do'a|tut- te l'ho-|re, sia be- ne-|det- to'a- mo-|2)re, sia|be- ne- det- to'a-|mo- re.|
w: 3)e gri- do'a|tut- te l'ho-|re, sia be- ne-|det- to'a- mo-|3)re, sia|be- ne- det- to'a-|mo- re.|
w: 4)ch'à gri- dar|son con- stret-|to, a- mor sia|be- ne- det-|4)to, a-|mor sia be- ne-|det- to.|
V:2
 F4 F2 F2 | E4 F2 E2- | E2 D2 C2 C2 |"^-natural" C2 B,2 C4 :: z2 E2 E2 E2 | E2 E2 E4- | %6
w: 1)Quan- do si-|gno- ra'il tuo|_ bel vi- so|veg- * gio,|1)tan- ta dol-|cez- za sen-|
w: 2)E se gli'oc-|chi toi ne-|* ri'an- cor va-|gheg- * gio,|2)ch'a- van- za-|no le stel-|
 E2 C2 D2 E2 | F4 F4 | z2 A2 D2 F2 | E2 D2 D2 ^C2 |"^-natural" D2 C2 C2 C2 | %11
w: * to nel mio|co- re,|1)e grin- do'a|tut- te l'ho- *|re, sia be- ne-|
w: * le di splen-|do- re,|2)e grin- do'a|tut- te l'ho- *|re, sia be- ne-|
"^-natural" A,2 C4 B,2 | C4 z2 C2 | C2 C2 A,2 C2- |"^-natural" C2 B,2 C4 :| %15
w: det- to'a- mo-|1)re, sia|be- ne- det- to'a-|* mo- re.|
w: det- to'a- mo-|2)re, sia|be- ne- det- to'a-|mo- * re.|
V:3
 F4 F2 B2 | c4 F2 c2- | c2 B2 A2 A2 | G4 C4 :: z2 c2 c2 c2 | c2 c2 c4- | c2 A2 B2 c2 | F4 F4 | %8
w: 3)Se de le|trec- cie bion-|* de poi m'a-|veg- gio,|3)che m'han li-|gatt in mil-|* le no- d'il|co- re,|
w: 4)Quan- do poi|la tua boc-|* ca s'a- pr'e|chiu- de,|4)sen- to tal|me- lo- dia|_ con tal di-|let- to,|
 z2 F2 G2 F2 | G2 G2 A4 |"^-natural" D2 C2 C2 C2 | D2 C2 G4 | C4 z2 A2 | A2 A2 F2 C2 | G4 C4 :| %15
w: 3)e grin- do'a|tut- te l'ho-|re, sia be- ne-|det- to'a- mo-|3)re, sia|be- ne- det- to'a-|mo- re.|
w: 4)ch'a grin- dar|son con- stret-|to, a- mor sia|be- ne- det-|4)to, a-|mor sia be- ne-|det- to.|

